svg/data_matrix_scan.svg

<svg xmlns="http://www.w3.org/2000/svg" viewBox="0 0 24 24"><path d="M2 2h4V0H2C.9 0 0 .9 0 2v4h2zm20-2h-4v2h4v4h2V2c0-1.1-.9-2-2-2M2 18H0v4c0 1.1.9 2 2 2h4v-2H2zm20 4h-4v2h4c1.1 0 2-.9 2-2v-4h-2zM8 6V4h2v2zm2 8v-2h2v2zm6-10h2v2h-2zm2 2h2v2h-2zm0 8h2v2h-2zm2-2h-4v6h4v2H4V4h2v2h2v4H6v2h2v2h2v2h2v2h2v-2h-2v-2h2v-4h-4V6h2V4h2v4h2v2h4zM8 18v-2H6v2z"/></svg>

<?xml version="1.0" encoding="UTF-8"?><!DOCTYPE svg PUBLIC "-//W3C//DTD SVG 1.1//EN" "http://www.w3.org/Graphics/SVG/1.1/DTD/svg11.dtd"><svg xmlns="http://www.w3.org/2000/svg" xmlns:xlink="http://www.w3.org/1999/xlink" version="1.1" id="mdi-data-matrix-scan" width="24" height="24" viewBox="0 0 24 24"><path d="M2 2H6V0H2C.9 0 0 .9 0 2V6H2V2M22 0H18V2H22V6H24V2C24 .9 23.1 0 22 0M2 18H0V22C0 23.1 .9 24 2 24H6V22H2V18M22 22H18V24H22C23.1 24 24 23.1 24 22V18H22V22M8 6V4H10V6H8M10 14V12H12V14H10M16 4H18V6H16V4M18 6H20V8H18V6M18 14H20V16H18V14M20 12H16V18H20V20H4V4H6V6H8V10H6V12H8V14H10V16H12V18H14V16H12V14H14V10H10V6H12V4H14V8H16V10H20V12M8 18V16H6V18H8Z" /></svg>
